icons/lines/star-one.svg

<svg xmlns="http://www.w3.org/2000/svg" width="24" height="24" viewBox="0 0 24 24" fill="none" stroke="currentColor" stroke-width="2" stroke-linecap="round" stroke-linejoin="round" >
  <path d="M13.7299 3.51001L15.4899 7.03001C15.7299 7.52002 16.3699 7.99001 16.9099 8.08001L20.0999 8.61001C22.1399 8.95001 22.6199 10.43 21.1499 11.89L18.6699 14.37C18.2499 14.79 18.0199 15.6 18.1499 16.18L18.8599 19.25C19.4199 21.68 18.1299 22.62 15.9799 21.35L12.9899 19.58C12.4499 19.26 11.5599 19.26 11.0099 19.58L8.01991 21.35C5.87991 22.62 4.57991 21.67 5.13991 19.25L5.84991 16.18C5.97991 15.6 5.74991 14.79 5.32991 14.37L2.84991 11.89C1.38991 10.43 1.85991 8.95001 3.89991 8.61001L7.08991 8.08001C7.61991 7.99001 8.25991 7.52002 8.49991 7.03001L10.2599 3.51001C11.2199 1.60001 12.7799 1.60001 13.7299 3.51001Z"/>
  </svg>

<svg xmlns="http://www.w3.org/2000/svg" width="24" height="24" viewBox="0 0 24 24" fill="none" stroke="currentColor" stroke-width="2" stroke-linecap="round" stroke-linejoin="round">
  <path d="M15.49 7.03c.24.49.88.96 1.42 1.05l3.19.53c2.04.34 2.52 1.82 1.05 3.28l-2.48 2.48c-.42.42-.65 1.23-.52 1.81l.71 3.07c.56 2.43-.73 3.37-2.88 2.1l-2.99-1.77c-.54-.32-1.43-.32-1.98 0l-2.99 1.77c-2.14 1.27-3.44.32-2.88-2.1l.71-3.07c.13-.58-.1-1.39-.52-1.81l-2.48-2.48c-1.46-1.46-.99-2.94 1.05-3.28l3.19-.53c.53-.09 1.17-.56 1.41-1.05l1.76-3.52c.96-1.91 2.52-1.91 3.47 0z" />
</svg>
